assets/Bellhop bell/Flat/bellhop_bell_flat.svg

<svg width="32" height="32" viewBox="0 0 32 32" fill="none" xmlns="http://www.w3.org/2000/svg">
<path d="M15 4.94697V8.05303C15 8.57386 15.45 9 16 9C16.55 9 17 8.57386 17 8.05303V4.94697C17 4.42614 16.55 4 16 4C15.45 4 15 4.42614 15 4.94697ZM14 22H18V26H14V22Z" fill="#FF822D"/>
<path d="M4 27H4.00215C2.90097 27 2 27.9 2 29H30C30 27.9 29.099 27 27.9979 27H28C28 25.9 27.11 25 26 25H6C4.9 25 4 25.9 4 27Z" fill="#5C2614"/>
<path d="M17.9967 4H14.0033C13.4515 4 13 4.45 13 5C13 5.55 13.4515 6 14.0033 6H17.9967C18.5485 6 19 5.55 19 5C19 4.45 18.5485 4 17.9967 4ZM27.9707 19.3882V20.0585C27.9707 20.5888 28.3906 21.009 28.9304 20.999H29.0004C29.5502 20.999 30 21.4492 30 21.9995C30 22.5498 29.5502 23 29.0004 23H27.9807H4.01928H2.99964C2.44984 23 2 22.5498 2 21.9995C2 21.4492 2.44984 20.999 2.99964 20.999C3.55944 20.999 4.00928 20.5488 4.00928 19.9885V18.988C4.00928 12.2946 9.49733 6.8819 16.2149 7.00196C22.8126 7.12202 27.9707 12.7849 27.9707 19.3882Z" fill="#FFB02E"/>
<path d="M19.98 13C21.0845 13 21.98 12.1046 21.98 11C21.98 9.89543 21.0845 9 19.98 9C18.8754 9 17.98 9.89543 17.98 11C17.98 12.1046 18.8754 13 19.98 13Z" fill="white"/>
</svg>

<svg xmlns="http://www.w3.org/2000/svg" width="32" height="32" fill="none"><path fill="#FF822D" d="M15 4.947v3.106c0 .52.45.947 1 .947s1-.426 1-.947V4.947c0-.52-.45-.947-1-.947s-1 .426-1 .947ZM14 22h4v4h-4v-4Z"/><path fill="#5C2614" d="M4 27h.002C2.901 27 2 27.9 2 29h28c0-1.1-.901-2-2.002-2H28a2 2 0 0 0-2-2H6c-1.1 0-2 .9-2 2Z"/><path fill="#FFB02E" d="M17.997 4h-3.994C13.451 4 13 4.45 13 5s.451 1 1.003 1h3.994C18.549 6 19 5.55 19 5s-.451-1-1.003-1Zm9.974 15.388v.67c0 .53.42.951.96.941H29c.55 0 .999.45.999 1S29.55 23 29 23H3c-.55 0-1-.45-1-1s.45-1.001 1-1.001c.56 0 1.01-.45 1.01-1.01v-1.001c0-6.693 5.487-12.106 12.205-11.986 6.598.12 11.756 5.783 11.756 12.386Z"/><path fill="#fff" d="M19.98 13a2 2 0 1 0 0-4 2 2 0 0 0 0 4Z"/></svg>
